images/theatre.svg

<?xml version="1.0" encoding="UTF-8"?>
<svg id="Layer_1" xmlns="http://www.w3.org/2000/svg" version="1.1" viewBox="0 0 155.8 108.8">
  <!-- Generator: Adobe Illustrator 30.3.0, SVG Export Plug-In . SVG Version: 2.1.3 Build 182)  -->
  <defs>
    <style>
      .st0 {
        fill: #ff6c00;
      }
    </style>
  </defs>
  <g>
    <path class="st0" d="M12.2,17.9h-6.5c-3.1,0-5.7-2.6-5.7-5.7v-6.5C0,2.6,2.6,0,5.7,0h6.6C15.4,0,18,2.6,18,5.7v6.6c-.1,3.1-2.6,5.6-5.8,5.6Z"/>
    <path class="st0" d="M39.8,17.9h-6.6c-3.1,0-5.7-2.6-5.7-5.7v-6.5C27.5,2.6,30.1,0,33.2,0h6.6C42.9,0,45.5,2.6,45.5,5.7v6.6c0,3.1-2.6,5.6-5.7,5.6Z"/>
    <path class="st0" d="M67.4,17.9h-6.6c-3.1,0-5.7-2.6-5.7-5.7v-6.5C55.1,2.6,57.7,0,60.8,0h6.6C70.5,0,73,2.6,73,5.7v6.6c0,3.1-2.5,5.6-5.6,5.6Z"/>
    <path class="st0" d="M94.9,17.9h-6.6c-3.1,0-5.7-2.6-5.7-5.7v-6.5C82.6,2.6,85.2,0,88.3,0h6.6C98,0,100.6,2.6,100.6,5.7v6.6c0,3.1-2.5,5.6-5.7,5.6Z"/>
    <path class="st0" d="M122.5,17.9h-6.5c-3.1,0-5.7-2.6-5.7-5.7v-6.5C110.3,2.6,112.9,0,116,0h6.6C125.7,0,128.3,2.6,128.3,5.7v6.6c-.1,3.1-2.7,5.6-5.8,5.6Z"/>
    <path class="st0" d="M150.1,17.9h-6.6c-3.1,0-5.7-2.6-5.7-5.7v-6.5C137.8,2.6,140.4,0,143.5,0h6.6C153.2,0,155.8,2.6,155.8,5.7v6.6c0,3.1-2.6,5.6-5.7,5.6Z"/>
  </g>
  <g>
    <path class="st0" d="M12.2,48.2h-6.5c-3.1,0-5.7-2.6-5.7-5.7v-6.5c0-3.1,2.6-5.7,5.7-5.7h6.6c3.1,0,5.7,2.6,5.7,5.7v6.6c-.1,3.1-2.6,5.6-5.8,5.6Z"/>
    <path class="st0" d="M39.8,48.2h-6.6c-3.1,0-5.7-2.6-5.7-5.7v-6.5c0-3.1,2.6-5.7,5.7-5.7h6.6c3.1,0,5.7,2.6,5.7,5.7v6.6c0,3.1-2.6,5.6-5.7,5.6Z"/>
    <path class="st0" d="M67.4,48.2h-6.6c-3.1,0-5.7-2.6-5.7-5.7v-6.5c0-3.1,2.6-5.7,5.7-5.7h6.6c3.1,0,5.7,2.6,5.7,5.7v6.6c0,3.1-2.6,5.6-5.7,5.6Z"/>
    <path class="st0" d="M94.9,48.2h-6.6c-3.1,0-5.7-2.6-5.7-5.7v-6.5c0-3.1,2.6-5.7,5.7-5.7h6.6c3.1,0,5.7,2.6,5.7,5.7v6.6c0,3.1-2.5,5.6-5.7,5.6Z"/>
    <path class="st0" d="M122.5,48.2h-6.5c-3.1,0-5.7-2.6-5.7-5.7v-6.5c0-3.1,2.6-5.7,5.7-5.7h6.6c3.1,0,5.7,2.6,5.7,5.7v6.6c-.1,3.1-2.7,5.6-5.8,5.6Z"/>
    <path class="st0" d="M150.1,48.2h-6.6c-3.1,0-5.7-2.6-5.7-5.7v-6.5c0-3.1,2.6-5.7,5.7-5.7h6.6c3.1,0,5.7,2.6,5.7,5.7v6.6c0,3.1-2.6,5.6-5.7,5.6Z"/>
  </g>
  <g>
    <path class="st0" d="M12.2,78.5h-6.5c-3.1,0-5.7-2.6-5.7-5.7v-6.6c0-3.1,2.6-5.7,5.7-5.7h6.6c3.1,0,5.7,2.6,5.7,5.7v6.6c-.1,3.1-2.6,5.7-5.8,5.7Z"/>
    <path class="st0" d="M39.8,78.5h-6.6c-3.1,0-5.7-2.6-5.7-5.7v-6.6c0-3.1,2.6-5.7,5.7-5.7h6.6c3.1,0,5.7,2.6,5.7,5.7v6.6c0,3.1-2.6,5.7-5.7,5.7Z"/>
    <path class="st0" d="M67.4,78.5h-6.6c-3.1,0-5.7-2.6-5.7-5.7v-6.6c0-3.1,2.6-5.7,5.7-5.7h6.6c3.1,0,5.7,2.6,5.7,5.7v6.6c0,3.1-2.6,5.7-5.7,5.7Z"/>
    <path class="st0" d="M94.9,78.5h-6.6c-3.1,0-5.7-2.6-5.7-5.7v-6.6c0-3.1,2.6-5.7,5.7-5.7h6.6c3.1,0,5.7,2.6,5.7,5.7v6.6c0,3.1-2.5,5.7-5.7,5.7Z"/>
    <path class="st0" d="M122.5,78.5h-6.5c-3.1,0-5.7-2.6-5.7-5.7v-6.6c0-3.1,2.6-5.7,5.7-5.7h6.6c3.1,0,5.7,2.6,5.7,5.7v6.6c-.1,3.1-2.7,5.7-5.8,5.7Z"/>
    <path class="st0" d="M150.1,78.5h-6.6c-3.1,0-5.7-2.6-5.7-5.7v-6.6c0-3.1,2.6-5.7,5.7-5.7h6.6c3.1,0,5.7,2.6,5.7,5.7v6.6c0,3.1-2.6,5.7-5.7,5.7Z"/>
  </g>
  <g>
    <path class="st0" d="M12.2,108.8h-6.5c-3.1,0-5.7-2.6-5.7-5.7v-6.6c0-3.1,2.6-5.7,5.7-5.7h6.6c3.1,0,5.7,2.6,5.7,5.7v6.6c-.1,3.1-2.6,5.7-5.8,5.7Z"/>
    <path class="st0" d="M39.8,108.8h-6.6c-3.1,0-5.7-2.6-5.7-5.7v-6.6c0-3.1,2.6-5.7,5.7-5.7h6.6c3.1,0,5.7,2.6,5.7,5.7v6.6c0,3.1-2.6,5.7-5.7,5.7Z"/>
    <path class="st0" d="M67.4,108.8h-6.6c-3.1,0-5.7-2.6-5.7-5.7v-6.6c0-3.1,2.6-5.7,5.7-5.7h6.6c3.1,0,5.7,2.6,5.7,5.7v6.6c0,3.1-2.6,5.7-5.7,5.7Z"/>
    <path class="st0" d="M94.9,108.8h-6.6c-3.1,0-5.7-2.6-5.7-5.7v-6.6c0-3.1,2.6-5.7,5.7-5.7h6.6c3.1,0,5.7,2.6,5.7,5.7v6.6c0,3.1-2.5,5.7-5.7,5.7Z"/>
    <path class="st0" d="M122.5,108.8h-6.5c-3.1,0-5.7-2.6-5.7-5.7v-6.6c0-3.1,2.6-5.7,5.7-5.7h6.6c3.1,0,5.7,2.6,5.7,5.7v6.6c-.1,3.1-2.7,5.7-5.8,5.7Z"/>
    <path class="st0" d="M150.1,108.8h-6.6c-3.1,0-5.7-2.6-5.7-5.7v-6.6c0-3.1,2.6-5.7,5.7-5.7h6.6c3.1,0,5.7,2.6,5.7,5.7v6.6c0,3.1-2.6,5.7-5.7,5.7Z"/>
  </g>
</svg>

<?xml version="1.0" encoding="utf-8"?>
<!-- Generator: Adobe Illustrator 20.0.0, SVG Export Plug-In . SVG Version: 6.00 Build 0)  -->
<svg version="1.1" id="Layer_1" xmlns="http://www.w3.org/2000/svg" xmlns:xlink="http://www.w3.org/1999/xlink" x="0px" y="0px"
	 viewBox="0 0 155.8 108.8" style="enable-background:new 0 0 155.8 108.8;" xml:space="preserve">
<style type="text/css">
	.st0{fill:#B8B092;}
</style>
<g>
	<path class="st0" d="M12.2,17.9H5.7c-3.1,0-5.7-2.6-5.7-5.7V5.7C0,2.6,2.6,0,5.7,0h6.6c3.1,0,5.7,2.6,5.7,5.7v6.6
		C17.9,15.4,15.4,17.9,12.2,17.9z"/>
	<path class="st0" d="M39.8,17.9h-6.6c-3.1,0-5.7-2.6-5.7-5.7V5.7c0-3.1,2.6-5.7,5.7-5.7h6.6c3.1,0,5.7,2.6,5.7,5.7v6.6
		C45.5,15.4,42.9,17.9,39.8,17.9z"/>
	<path class="st0" d="M67.4,17.9h-6.6c-3.1,0-5.7-2.6-5.7-5.7V5.7c0-3.1,2.6-5.7,5.7-5.7h6.6C70.5,0,73,2.6,73,5.7v6.6
		C73,15.4,70.5,17.9,67.4,17.9z"/>
	<path class="st0" d="M94.9,17.9h-6.6c-3.1,0-5.7-2.6-5.7-5.7V5.7c0-3.1,2.6-5.7,5.7-5.7h6.6c3.1,0,5.7,2.6,5.7,5.7v6.6
		C100.6,15.4,98.1,17.9,94.9,17.9z"/>
	<path class="st0" d="M122.5,17.9H116c-3.1,0-5.7-2.6-5.7-5.7V5.7c0-3.1,2.6-5.7,5.7-5.7h6.6c3.1,0,5.7,2.6,5.7,5.7v6.6
		C128.2,15.4,125.6,17.9,122.5,17.9z"/>
	<path class="st0" d="M150.1,17.9h-6.6c-3.1,0-5.7-2.6-5.7-5.7V5.7c0-3.1,2.6-5.7,5.7-5.7h6.6c3.1,0,5.7,2.6,5.7,5.7v6.6
		C155.8,15.4,153.2,17.9,150.1,17.9z"/>
</g>
<g>
	<path class="st0" d="M12.2,48.2H5.7c-3.1,0-5.7-2.6-5.7-5.7V36c0-3.1,2.6-5.7,5.7-5.7h6.6c3.1,0,5.7,2.6,5.7,5.7v6.6
		C17.9,45.7,15.4,48.2,12.2,48.2z"/>
	<path class="st0" d="M39.8,48.2h-6.6c-3.1,0-5.7-2.6-5.7-5.7V36c0-3.1,2.6-5.7,5.7-5.7h6.6c3.1,0,5.7,2.6,5.7,5.7v6.6
		C45.5,45.7,42.9,48.2,39.8,48.2z"/>
	<path class="st0" d="M67.4,48.2h-6.6c-3.1,0-5.7-2.6-5.7-5.7V36c0-3.1,2.6-5.7,5.7-5.7h6.6c3.1,0,5.7,2.6,5.7,5.7v6.6
		C73,45.7,70.5,48.2,67.4,48.2z"/>
	<path class="st0" d="M94.9,48.2h-6.6c-3.1,0-5.7-2.6-5.7-5.7V36c0-3.1,2.6-5.7,5.7-5.7h6.6c3.1,0,5.7,2.6,5.7,5.7v6.6
		C100.6,45.7,98.1,48.2,94.9,48.2z"/>
	<path class="st0" d="M122.5,48.2H116c-3.1,0-5.7-2.6-5.7-5.7V36c0-3.1,2.6-5.7,5.7-5.7h6.6c3.1,0,5.7,2.6,5.7,5.7v6.6
		C128.2,45.7,125.6,48.2,122.5,48.2z"/>
	<path class="st0" d="M150.1,48.2h-6.6c-3.1,0-5.7-2.6-5.7-5.7V36c0-3.1,2.6-5.7,5.7-5.7h6.6c3.1,0,5.7,2.6,5.7,5.7v6.6
		C155.8,45.7,153.2,48.2,150.1,48.2z"/>
</g>
<g>
	<path class="st0" d="M12.2,78.5H5.7c-3.1,0-5.7-2.6-5.7-5.7v-6.6c0-3.1,2.6-5.7,5.7-5.7h6.6c3.1,0,5.7,2.6,5.7,5.7v6.6
		C17.9,75.9,15.4,78.5,12.2,78.5z"/>
	<path class="st0" d="M39.8,78.5h-6.6c-3.1,0-5.7-2.6-5.7-5.7v-6.6c0-3.1,2.6-5.7,5.7-5.7h6.6c3.1,0,5.7,2.6,5.7,5.7v6.6
		C45.5,75.9,42.9,78.5,39.8,78.5z"/>
	<path class="st0" d="M67.4,78.5h-6.6c-3.1,0-5.7-2.6-5.7-5.7v-6.6c0-3.1,2.6-5.7,5.7-5.7h6.6c3.1,0,5.7,2.6,5.7,5.7v6.6
		C73,75.9,70.5,78.5,67.4,78.5z"/>
	<path class="st0" d="M94.9,78.5h-6.6c-3.1,0-5.7-2.6-5.7-5.7v-6.6c0-3.1,2.6-5.7,5.7-5.7h6.6c3.1,0,5.7,2.6,5.7,5.7v6.6
		C100.6,75.9,98.1,78.5,94.9,78.5z"/>
	<path class="st0" d="M122.5,78.5H116c-3.1,0-5.7-2.6-5.7-5.7v-6.6c0-3.1,2.6-5.7,5.7-5.7h6.6c3.1,0,5.7,2.6,5.7,5.7v6.6
		C128.2,75.9,125.6,78.5,122.5,78.5z"/>
	<path class="st0" d="M150.1,78.5h-6.6c-3.1,0-5.7-2.6-5.7-5.7v-6.6c0-3.1,2.6-5.7,5.7-5.7h6.6c3.1,0,5.7,2.6,5.7,5.7v6.6
		C155.8,75.9,153.2,78.5,150.1,78.5z"/>
</g>
<g>
	<path class="st0" d="M12.2,108.8H5.7c-3.1,0-5.7-2.6-5.7-5.7v-6.6c0-3.1,2.6-5.7,5.7-5.7h6.6c3.1,0,5.7,2.6,5.7,5.7v6.6
		C17.9,106.2,15.4,108.8,12.2,108.8z"/>
	<path class="st0" d="M39.8,108.8h-6.6c-3.1,0-5.7-2.6-5.7-5.7v-6.6c0-3.1,2.6-5.7,5.7-5.7h6.6c3.1,0,5.7,2.6,5.7,5.7v6.6
		C45.5,106.2,42.9,108.8,39.8,108.8z"/>
	<path class="st0" d="M67.4,108.8h-6.6c-3.1,0-5.7-2.6-5.7-5.7v-6.6c0-3.1,2.6-5.7,5.7-5.7h6.6c3.1,0,5.7,2.6,5.7,5.7v6.6
		C73,106.2,70.5,108.8,67.4,108.8z"/>
	<path class="st0" d="M94.9,108.8h-6.6c-3.1,0-5.7-2.6-5.7-5.7v-6.6c0-3.1,2.6-5.7,5.7-5.7h6.6c3.1,0,5.7,2.6,5.7,5.7v6.6
		C100.6,106.2,98.1,108.8,94.9,108.8z"/>
	<path class="st0" d="M122.5,108.8H116c-3.1,0-5.7-2.6-5.7-5.7v-6.6c0-3.1,2.6-5.7,5.7-5.7h6.6c3.1,0,5.7,2.6,5.7,5.7v6.6
		C128.2,106.2,125.6,108.8,122.5,108.8z"/>
	<path class="st0" d="M150.1,108.8h-6.6c-3.1,0-5.7-2.6-5.7-5.7v-6.6c0-3.1,2.6-5.7,5.7-5.7h6.6c3.1,0,5.7,2.6,5.7,5.7v6.6
		C155.8,106.2,153.2,108.8,150.1,108.8z"/>
</g>
</svg>
